X: 12063
T: Esme's Dream
R: waltz
M: 3/4
K: Gmajor
Bc|:d3 gfg|dB G2 bB|c3 ABG|AFD2 Bc|d3 gfg|dB G2 F2|Ecbc DF|G4 Bc(1st time):|G4 AG (2nd time)
|:F2 FA dA|bG DG B,D|c2^ c2a c2e|d3 cBc|dg bg af|gd bG bd|c2 cA BG|AF D2 DC|B,D G2 D2|E2 C2 E2|Dd ec AF|G4 AG (1st time):|G4

